icons/desktop/16/glasses-16.svg

<svg width="16" height="16" viewBox="0 0 16 16" fill="none" xmlns="http://www.w3.org/2000/svg">
<g clip-path="url(#clip0_22098_1096)">
<path fill-rule="evenodd" clip-rule="evenodd" d="M11.7998 2.00217C12.3928 2.04217 12.9842 2.09056 13.5742 2.15256C14.9601 2.29764 16.0009 3.49302 16.001 4.88694L16 12.4631C15.9999 13.747 15.0273 14.8296 13.7383 14.9446L13.7393 14.9455C13.3505 14.9805 12.937 15.0002 12.5 15.0002C12.1281 15.0002 11.7119 14.9857 11.2588 14.9455C9.97637 14.8303 9.00014 13.7442 9 12.466V11.5578C8.33882 11.483 7.66634 11.4824 7 11.5578V12.4631C6.99986 13.747 6.02734 14.8296 4.73828 14.9446L4.73926 14.9455C4.35049 14.9805 3.93697 15.0002 3.5 15.0002C3.1281 15.0002 2.71186 14.9857 2.25879 14.9455C0.976367 14.8303 0.000138725 13.7442 0 12.466V4.88791C4.61255e-05 3.49401 1.0399 2.29764 2.42578 2.15256C3.01478 2.09056 3.6072 2.04217 4.2002 2.00217C4.63312 1.97328 5 2.32019 5 2.75412C4.99994 3.14907 4.69181 3.47322 4.29785 3.50022C3.73191 3.53822 3.16549 3.5838 2.60254 3.6428C1.97179 3.709 1.50005 4.2541 1.5 4.88791V8.24924C1.73589 8.14748 1.99111 8.08001 2.26074 8.05588C2.64952 8.02092 3.06302 8.00022 3.5 8.00022C3.8719 8.00022 4.28813 8.01477 4.74121 8.0549C5.85899 8.15532 6.7434 8.99311 6.95215 10.053C7.65002 9.98195 8.35311 9.98264 9.04688 10.053C9.25542 8.99063 10.1378 8.15635 11.2607 8.05588C11.6495 8.02092 12.063 8.00022 12.5 8.00022C12.8719 8.00022 13.2881 8.01477 13.7412 8.0549C14.01 8.07905 14.2653 8.14794 14.501 8.25022V4.88694C14.5009 4.25311 14.0282 3.709 13.3975 3.6428C12.8345 3.5838 12.2681 3.53822 11.7021 3.50022C11.3072 3.47422 11.0001 3.14907 11 2.75412C11 2.32019 11.3669 1.97328 11.7998 2.00217ZM3.5 9.50022C3.10911 9.50022 2.74063 9.51802 2.39551 9.54905C1.89071 9.59412 1.5 10.0194 1.5 10.5373V12.466C1.50014 12.9775 1.89246 13.4063 2.3916 13.4514L2.97266 13.4895C3.15781 13.4973 3.33389 13.5002 3.5 13.5002C3.89101 13.5002 4.26025 13.4824 4.60547 13.4514C5.11019 13.4063 5.49986 12.9809 5.5 12.4631V10.5344C5.5 10.0547 5.15489 9.64761 4.7002 9.56174L4.6084 9.54905C4.20365 9.51321 3.83197 9.50022 3.5 9.50022ZM12.5 9.50022C12.1091 9.50022 11.7406 9.51802 11.3955 9.54905C10.8907 9.59412 10.5 10.0194 10.5 10.5373V12.466C10.5001 12.9775 10.8925 13.4063 11.3916 13.4514L11.9727 13.4895C12.1578 13.4973 12.3339 13.5002 12.5 13.5002C12.891 13.5002 13.2603 13.4824 13.6055 13.4514C14.1102 13.4063 14.4999 12.9809 14.5 12.4631V10.5344C14.5 10.0547 14.1549 9.64761 13.7002 9.56174L13.6084 9.54905C13.2037 9.51321 12.832 9.50022 12.5 9.50022Z" fill="black"/>
</g>
<defs>
<clipPath id="clip0_22098_1096">
<rect width="16" height="16" fill="white"/>
</clipPath>
</defs>
</svg>

<!-- This Source Code Form is subject to the terms of the Mozilla Public
   - License, v. 2.0. If a copy of the MPL was not distributed with this
   - file, You can obtain one at http://mozilla.org/MPL/2.0/. -->
<svg xmlns="http://www.w3.org/2000/svg" width="16" height="16" fill="context-fill" fill-opacity="context-fill-opacity" viewBox="0 0 16 16">
    <path fill-rule="evenodd" d="M11.8 2.002q.89.06 1.774.15c1.386.146 2.427 1.341 2.427 2.735L16 12.463a2.486 2.486 0 0 1-2.262 2.482h.001a14 14 0 0 1-2.48 0A2.49 2.49 0 0 1 9 12.467v-.908a9 9 0 0 0-2 0v.905a2.486 2.486 0 0 1-2.262 2.482h.001a14 14 0 0 1-2.48 0A2.49 2.49 0 0 1 0 12.467V4.888c0-1.394 1.04-2.59 2.426-2.735q.884-.091 1.774-.15A.75.75 0 1 1 4.298 3.5q-.85.054-1.695.142A1.246 1.246 0 0 0 1.5 4.888v3.361q.355-.155.76-.193a14 14 0 0 1 2.481-.001c1.118.1 2.002.938 2.211 1.998a10.4 10.4 0 0 1 2.095 0 2.48 2.48 0 0 1 2.214-1.997 14 14 0 0 1 2.48-.001c.269.024.524.093.76.195V4.887c0-.634-.473-1.178-1.103-1.244a46 46 0 0 0-1.696-.143.75.75 0 0 1-.702-.746c0-.434.367-.78.8-.752M3.5 9.5q-.586.001-1.104.049a.987.987 0 0 0-.896.988v1.929c0 .511.392.94.892.985l.58.038a12.5 12.5 0 0 0 1.633-.038.986.986 0 0 0 .895-.988v-1.929a.99.99 0 0 0-.8-.972l-.092-.013A13 13 0 0 0 3.5 9.5m9 0q-.587.001-1.104.049a.987.987 0 0 0-.896.988v1.929c0 .511.393.94.892.985l.58.038a12.5 12.5 0 0 0 1.633-.038.986.986 0 0 0 .895-.988v-1.929a.99.99 0 0 0-.8-.972l-.092-.013A13 13 0 0 0 12.5 9.5" clip-rule="evenodd" />
</svg>
